src/images/icons/icon-medal.svg

<?xml version="1.0" encoding="UTF-8"?>
<svg width="48px" height="48px" viewBox="0 0 48 48" version="1.1" xmlns="http://www.w3.org/2000/svg" xmlns:xlink="http://www.w3.org/1999/xlink">
    <!-- Generator: Sketch 44.1 (41455) - http://www.bohemiancoding.com/sketch -->
    <title>icon-medal</title>
    <desc>Created with Sketch.</desc>
    <defs></defs>
    <g id="Page-1" stroke="none" stroke-width="1" fill="none" fill-rule="evenodd">
        <g id="icon-medal" fill="#FFC730">
            <g id="Fill-1431-+-Fill-1432" transform="translate(9.000000, -1.000000)">
                <ellipse id="Oval" stroke="#979797" opacity="0.334578804" cx="15.5" cy="34.4042553" rx="12.4" ry="12.5106383"></ellipse>
                <path d="M6.98280812,16.3432306 L8.14001229,18.8833906 C10.4804477,17.6683574 13.129204,16.9717651 15.9441331,16.9717651 C18.8131185,16.9717651 21.5179331,17.6923779 23.892404,18.9534502 L24.8433935,16.381263 L28.8876019,7.3736034 C28.9476644,7.24549447 28.9776956,7.10537532 28.9776956,6.96325447 L28.9776956,1.95899915 C28.9776956,1.40652936 28.529229,0.958148085 27.976654,0.958148085 L22.9294019,0.958148085 L22.9294019,13.9692119 C22.9294019,14.5216817 22.4809352,14.970063 21.9283602,14.970063 C21.3757852,14.970063 20.9273185,14.5216817 20.9273185,13.9692119 L20.9273185,0.958148085 L16.9231519,0.958148085 L16.9231519,13.9692119 C16.9231519,14.5216817 16.4746852,14.970063 15.9221102,14.970063 C15.3695352,14.970063 14.9210685,14.5216817 14.9210685,13.9692119 L14.9210685,0.958148085 L10.9169019,0.958148085 L10.9169019,13.9692119 C10.9169019,14.5216817 10.4684352,14.970063 9.91586021,14.970063 C9.36328521,14.970063 8.91481854,14.5216817 8.91481854,13.9692119 L8.91481854,0.958148085 L3.90961021,0.958148085 C3.35703521,0.958148085 2.90856854,1.40652936 2.90856854,1.95899915 L2.90856854,6.96325447 C2.90856854,7.10337362 2.93659771,7.24349277 2.99465812,7.3716017 L6.98280812,16.3432306 Z" id="Fill-1431"></path>
                <path d="M25.5529319,31.764544 L21.0682652,35.3475908 L22.890161,41.7130036 C23.010286,42.113344 22.8681381,42.5337014 22.527784,42.7939227 C22.3475965,42.9140249 22.1473881,42.9940929 21.927159,42.9940929 C21.7489735,42.9940929 21.568786,42.9340419 21.4086194,42.8339568 L15.920909,39.4110461 L10.4552215,42.8339568 C10.0948465,43.054144 9.65639021,43.034127 9.31603604,42.7939227 C8.99570271,42.5337014 8.83353396,42.113344 8.95365896,41.7130036 L10.7755548,35.3475908 L6.29088813,31.764544 C5.95053396,31.4843057 5.83040896,31.0439312 5.97055479,30.6435908 C6.11070063,30.2432504 6.49309854,29.9830291 6.91153396,29.9830291 L12.2971381,29.9830291 L15.0419944,24.5183823 C15.3603256,23.8378036 16.4814923,23.8378036 16.8238485,24.5183823 L19.5466819,29.9830291 L24.930284,29.9830291 C25.3507215,29.9830291 25.7331194,30.2432504 25.8712631,30.6435908 C26.013411,31.0439312 25.893286,31.4843057 25.5529319,31.764544 M15.9429319,18.9736674 C7.66231521,18.9736674 0.927306875,25.7073934 0.927306875,33.9864334 C0.927306875,42.2654734 7.66231521,48.9991993 15.9429319,48.9991993 C24.2235485,48.9991993 30.9585569,42.2654734 30.9585569,33.9864334 C30.9585569,25.7073934 24.2235485,18.9736674 15.9429319,18.9736674" id="Fill-1432"></path>
            </g>
        </g>
    </g>
</svg>

<svg xmlns="http://www.w3.org/2000/svg" width="48" height="48"><g fill="#FFC730" fill-rule="evenodd" transform="translate(9 -1)"><ellipse cx="15.5" cy="34.404" stroke="#979797" opacity=".335" rx="12.4" ry="12.511"/><path d="m6.983 16.343 1.157 2.54a16.9 16.9 0 0 1 15.752.07l.951-2.572 4.045-9.007a.966.966 0 0 0 .09-.41V1.958c0-.552-.449-1-1.001-1h-5.048v13.01a1.001 1.001 0 0 1-2.002 0V.96h-4.004v13.01a1.001 1.001 0 0 1-2.002 0V.96h-4.004v13.01a1.001 1.001 0 0 1-2.002 0V.96H3.91c-.553 0-1.001.448-1.001 1v5.004c0 .14.028.28.086.409l3.988 8.971ZM25.553 31.765l-4.485 3.583 1.822 6.365a.99.99 0 0 1-.362 1.08c-.18.121-.38.201-.6.201a.991.991 0 0 1-.52-.16l-5.487-3.423-5.466 3.423c-.36.22-.799.2-1.139-.04-.32-.26-.482-.68-.362-1.081l1.822-6.365-4.485-3.583c-.34-.28-.46-.721-.32-1.121s.522-.661.94-.661h5.386l2.745-5.465c.318-.68 1.44-.68 1.782 0l2.723 5.465h5.383c.42 0 .803.26.941.66.142.4.022.841-.318 1.122m-9.61-12.791c-8.28 0-15.016 6.733-15.016 15.012C.927 42.266 7.662 49 15.943 49c8.28 0 15.016-6.734 15.016-15.013s-6.735-15.012-15.016-15.012"/></g></svg>
